ix/hierarchy-square_outline.svg

<svg viewBox="0 0 24 24" fill="none" xmlns="http://www.w3.org/2000/svg" height="1em" width="1em">
  <path d="M16.4508 15.15C16.0408 15.15 15.7008 14.81 15.7008 14.4V8.5C15.7008 8.36 15.5908 8.25 15.4508 8.25H12.5508C12.1408 8.25 11.8008 7.91 11.8008 7.5C11.8008 7.09 12.1408 6.75 12.5508 6.75H15.4508C16.4108 6.75 17.2008 7.54 17.2008 8.5V14.4C17.2008 14.81 16.8608 15.15 16.4508 15.15Z" fill="#292D32"/>
  <path d="M14.05 9.75017C13.88 9.75017 13.71 9.69016 13.57 9.58016L11.77 8.08016C11.6 7.94016 11.5 7.73017 11.5 7.50017C11.5 7.27017 11.6 7.07019 11.77 6.92019L13.57 5.42019C13.89 5.16019 14.36 5.20016 14.63 5.52016C14.9 5.84016 14.85 6.31016 14.53 6.58016L13.42 7.50017L14.53 8.42019C14.85 8.69019 14.89 9.16018 14.63 9.48018C14.48 9.66018 14.26 9.75017 14.05 9.75017Z" fill="#292D32"/>
  <path d="M7.55078 15.1502C7.14078 15.1502 6.80078 14.8102 6.80078 14.4002V10.2002C6.80078 9.7902 7.14078 9.4502 7.55078 9.4502C7.96078 9.4502 8.30078 9.7902 8.30078 10.2002V14.4002C8.30078 14.8102 7.96078 15.1502 7.55078 15.1502Z" fill="#292D32"/>
  <path d="M7.70001 10.65C6.21001 10.65 5 9.44001 5 7.95001C5 6.46001 6.21001 5.25 7.70001 5.25C9.19001 5.25 10.4 6.46001 10.4 7.95001C10.4 9.44001 9.19001 10.65 7.70001 10.65ZM7.70001 6.75C7.04001 6.75 6.5 7.29001 6.5 7.95001C6.5 8.61001 7.04001 9.14999 7.70001 9.14999C8.36001 9.14999 8.90002 8.61001 8.90002 7.95001C8.90002 7.29001 8.36001 6.75 7.70001 6.75Z" fill="#292D32"/>
  <path d="M7.54999 18.7499C6.13999 18.7499 5 17.6099 5 16.1999C5 14.7899 6.13999 13.6499 7.54999 13.6499C8.95999 13.6499 10.1 14.7899 10.1 16.1999C10.1 17.6099 8.95999 18.7499 7.54999 18.7499ZM7.54999 15.1499C6.96999 15.1499 6.5 15.6199 6.5 16.1999C6.5 16.7799 6.96999 17.2499 7.54999 17.2499C8.12999 17.2499 8.59998 16.7799 8.59998 16.1999C8.59998 15.6199 8.12999 15.1499 7.54999 15.1499Z" fill="#292D32"/>
  <path d="M16.4504 18.7499C15.0404 18.7499 13.9004 17.6099 13.9004 16.1999C13.9004 14.7899 15.0404 13.6499 16.4504 13.6499C17.8604 13.6499 19.0004 14.7899 19.0004 16.1999C19.0004 17.6099 17.8604 18.7499 16.4504 18.7499ZM16.4504 15.1499C15.8704 15.1499 15.4004 15.6199 15.4004 16.1999C15.4004 16.7799 15.8704 17.2499 16.4504 17.2499C17.0304 17.2499 17.5004 16.7799 17.5004 16.1999C17.5004 15.6199 17.0304 15.1499 16.4504 15.1499Z" fill="#292D32"/>
  <path d="M15 22.75H9C3.57 22.75 1.25 20.43 1.25 15V9C1.25 3.57 3.57 1.25 9 1.25H15C20.43 1.25 22.75 3.57 22.75 9V15C22.75 20.43 20.43 22.75 15 22.75ZM9 2.75C4.39 2.75 2.75 4.39 2.75 9V15C2.75 19.61 4.39 21.25 9 21.25H15C19.61 21.25 21.25 19.61 21.25 15V9C21.25 4.39 19.61 2.75 15 2.75H9Z" fill="#292D32"/>
</svg>

<svg viewBox="0 0 24 24" fill="none" xmlns="http://www.w3.org/2000/svg" height="1em" width="1em">
  <path d="M16.45 15.15c-.41 0-.75-.34-.75-.75V8.5c0-.14-.11-.25-.25-.25h-2.9c-.41 0-.75-.34-.75-.75s.34-.75.75-.75h2.9c.96 0 1.75.79 1.75 1.75v5.9c0 .41-.34.75-.75.75Z" fill="#292D32"/>
  <path d="M14.05 9.75c-.17 0-.34-.06-.48-.17l-1.8-1.5a.761.761 0 0 1 0-1.16l1.8-1.5c.32-.26.79-.22 1.06.1s.22.79-.1 1.06l-1.11.92 1.11.92c.32.27.36.74.1 1.06-.15.18-.37.27-.58.27Zm-6.5 5.4c-.41 0-.75-.34-.75-.75v-4.2c0-.41.34-.75.75-.75s.75.34.75.75v4.2c0 .41-.34.75-.75.75Z" fill="#292D32"/>
  <path d="M7.7 10.65c-1.49 0-2.7-1.21-2.7-2.7 0-1.49 1.21-2.7 2.7-2.7 1.49 0 2.7 1.21 2.7 2.7 0 1.49-1.21 2.7-2.7 2.7Zm0-3.9c-.66 0-1.2.54-1.2 1.2 0 .66.54 1.2 1.2 1.2.66 0 1.2-.54 1.2-1.2 0-.66-.54-1.2-1.2-1.2Zm-.15 12C6.14 18.75 5 17.61 5 16.2s1.14-2.55 2.55-2.55 2.55 1.14 2.55 2.55-1.14 2.55-2.55 2.55Zm0-3.6a1.05 1.05 0 1 0 0 2.1 1.05 1.05 0 0 0 0-2.1Zm8.9 3.6c-1.41 0-2.55-1.14-2.55-2.55s1.14-2.55 2.55-2.55S19 14.79 19 16.2s-1.14 2.55-2.55 2.55Zm0-3.6a1.05 1.05 0 1 0 0 2.1 1.05 1.05 0 0 0 0-2.1Z" fill="#292D32"/>
  <path d="M15 22.75H9c-5.43 0-7.75-2.32-7.75-7.75V9c0-5.43 2.32-7.75 7.75-7.75h6c5.43 0 7.75 2.32 7.75 7.75v6c0 5.43-2.32 7.75-7.75 7.75Zm-6-20C4.39 2.75 2.75 4.39 2.75 9v6c0 4.61 1.64 6.25 6.25 6.25h6c4.61 0 6.25-1.64 6.25-6.25V9c0-4.61-1.64-6.25-6.25-6.25H9Z" fill="#292D32"/>
</svg>
